icons/extensions/yml.svg

<?xml version="1.0" encoding="UTF-8"?>
<svg width="42px" height="42px" viewBox="0 0 42 42" version="1.1" xmlns="http://www.w3.org/2000/svg" xmlns:xlink="http://www.w3.org/1999/xlink">
    <!-- Generator: Sketch 44.1 (41455) - http://www.bohemiancoding.com/sketch -->
    <desc>Created with Sketch.</desc>
    <defs>
        <path d="M6,11.0049466 C6,9.89764516 6.88976324,9 8.00359486,9 L30.004543,9 C30.5543187,9 31.3127724,9.31277239 31.7057732,9.70577316 L35.2942268,13.2942268 C35.6840146,13.6840146 36,14.4509254 36,14.9947712 L36,31.0025781 C36,32.1057238 35.1021596,33 34.008383,33 L7.99161703,33 C6.89167732,33 6,32.1029738 6,30.9950534 L6,11.0049466 Z" id="path-1"></path>
    </defs>
    <g id="扩展名-(icons/extensions-5-10)" stroke="none" stroke-width="1" fill="none" fill-rule="evenodd">
        <g id="YML">
            <g id="Mask">
                <use fill="#121212" fill-rule="evenodd" xlink:href="#path-1"></use>
                <path stroke="#AB0119" stroke-width="2" d="M7,11.0049466 L7,30.9950534 C7,31.5519156 7.44520033,32 7.99161703,32 L34.008383,32 C34.5518298,32 35,31.5514822 35,31.0025781 L35,14.9947712 C35,14.714188 34.7879905,14.202204 34.5871201,14.0013336 L30.9986664,10.4128799 C30.7943372,10.2085507 30.2907084,10 30.004543,10 L8.00359486,10 C7.44527569,10 7,10.4466967 7,11.0049466 Z"></path>
            </g>
            <path d="M17,18 C15.8954305,18 15,17.1045695 15,16 C15,14.8954305 15.8954305,14 17,14 C18.1045695,14 19,14.8954305 19,16 C19,17.1045695 18.1045695,18 17,18 Z M17,28 C15.8954305,28 15,27.1045695 15,26 C15,24.8954305 15.8954305,24 17,24 C18.1045695,24 19,24.8954305 19,26 C19,27.1045695 18.1045695,28 17,28 Z" id="Combined-Shape" fill="#AB0119"></path>
            <rect id="Rectangle-6" fill="#AB0119" opacity="0.299999982" x="26" y="17" width="2" height="8" rx="1"></rect>
        </g>
    </g>
</svg>

<svg viewBox="0 0 42 42" xmlns="http://www.w3.org/2000/svg" xmlns:xlink="http://www.w3.org/1999/xlink"><defs><path d="M6 11.005A2 2 0 0 1 8.004 9h22c.55 0 1.309.313 1.702.706l3.588 3.588c.39.39.706 1.157.706 1.7v16.009A1.998 1.998 0 0 1 34.008 33H7.992C6.892 33 6 32.103 6 30.995v-19.99z" id="a"/></defs><g fill="none" fill-rule="evenodd"><use fill="#121212" xlink:href="#a"/><path stroke="#AB0119" stroke-width="2" d="M7 11.005v19.99A.998.998 0 0 0 7.992 32h26.016a.999.999 0 0 0 .992-.997V14.995c0-.28-.212-.793-.413-.994L31 10.413c-.205-.204-.708-.413-.994-.413H8.004A1 1 0 0 0 7 11.005z"/><path d="M17 18a2 2 0 1 1 0-4 2 2 0 0 1 0 4zm0 10a2 2 0 1 1 0-4 2 2 0 0 1 0 4z" fill="#AB0119"/><rect fill="#AB0119" opacity=".3" x="26" y="17" width="2" height="8" rx="1"/></g></svg>
